Hatter-kde/actions/24/view-media-lyrics.svg

<?xml version="1.0" encoding="UTF-8"?>
<svg viewBox="0 0 24 24" xmlns="http://www.w3.org/2000/svg">
 <defs id="defs3051">
  <style id="current-color-scheme" type="text/css">.ColorScheme-Text {
        color:#363636;
      }</style>
 </defs>
 <path class="ColorScheme-Text" d="m4 4v1h16v-1h-16zm0 3v1h9v-1h-9zm13 2v1 5.5c-0.4182-0.3148-0.934-0.5-1.5-0.5-1.385 0-2.5 1.115-2.5 2.5s1.115 2.5 2.5 2.5 2.5-1.115 2.5-2.5v-6.5h2c0-1.108-0.892-2-2-2h-1zm-13 1v1h11v-1h-11zm0 3v1h9v-1h-9zm0 3v1h7v-1h-7zm0 3v1h7v-1h-7z" fill="currentColor"/>
</svg>

<svg xmlns="http://www.w3.org/2000/svg" viewBox="0 0 24 24">
  <defs id="defs3051">
    <style type="text/css" id="current-color-scheme">
      .ColorScheme-Text {
        color:#363636;
      }
      </style>
  </defs>
 <path style="fill:currentColor;fill-opacity:1;stroke:none" 
     d="M 4 4 L 4 5 L 20 5 L 20 4 L 4 4 z M 4 7 L 4 8 L 13 8 L 13 7 L 4 7 z M 17 9 L 17 10 L 17 15.5 C 16.5818 15.1852 16.066 15 15.5 15 C 14.115 15 13 16.115 13 17.5 C 13 18.885 14.115 20 15.5 20 C 16.885 20 18 18.885 18 17.5 L 18 11 L 20 11 C 20 9.892 19.108 9 18 9 L 17 9 z M 4 10 L 4 11 L 15 11 L 15 10 L 4 10 z M 4 13 L 4 14 L 13 14 L 13 13 L 4 13 z M 4 16 L 4 17 L 11 17 L 11 16 L 4 16 z M 4 19 L 4 20 L 11 20 L 11 19 L 4 19 z "
     class="ColorScheme-Text"
     />
</svg>
